!!!COM: Kostka, Payne, and Almén
!!!OPR: Tonal Harmony
!!!XEN: Modulation snippets
!!!OTL: 1. C Major to G Major
!!!ENC: Laurent Feisthauer and Nestor Napoles Lopez
**kern	**kern
*staff2	*staff1
*clefG2	*clefG2
*k[]	*k[]
*C:	*C:
*M3/4	*M3/4
4r	4gg
=1	=1
2.c g	4ff
.	4ee
.	4ff
=2	=2
2.f g	4ee
.	4dd
.	4b
=3	=3
4e g	4cc
4d	4b ff
4c	4cc ee
=4	=4
2g	4cc ee
.	4b dd
*clefF4	*
4B	4dd
=5	=5
4c	4ee
4A c	4ff#
4B d	4gg#
=6	=6
4c e	4.aa
4c e	.
.	8bb
4r	4ccc
=7	=7
4D c	4.dd
4D c	.
.	8ee
4r	4ff#
=8	=8
8G B	4gg
8d	.
8G B	4r
8d	.
8G B	4r
8d	.
==	==
!!!filter: autobeam
*-	*-